X: 14879
T: Garster's Dream
R: jig
M: 6/8
K: Gmajor
G2 B BGE|EGE BGE|F2 A AFD|DFD AFD|
G2 B BGE|EGE BGE|F2 A DEF|G3 G3:|
ggg gdB|AFA AFD|ggg gfe|dBd dBd|
ggg gdB|AFA AFD|GFE DEF|G3 G3:|

